X:1
T:Title
%%score { ( 1 2 ) | ( 3 4 ) }
L:1/8
M:4/4
K:D
V:1 treble nm="Grand Piano"
V:2 treble 
V:3 bass 
V:4 bass 
V:1
 z4 z2[Q:1/4=110] z F | [FA]2 [FA]2 [FA]2 [FA]2 | [Fd]2 [GB]2 [FA]2 [F,D][A,DF] | %3
 [DFA]4 [A,DF]2 [F,D]2 |[M:3/4] [A,DF]2 [A,CE]2 z2 |[M:1/4] D2 |[M:4/4] [FA]2 [FA]2 [FA]2 [FA]2 | %7
 [Fd]2 [GB]2 [FA]2 [F,D][A,DF] | [A,FA]4 [A,EG]2[K:bass] [G,CE]2 |[M:3/4] [G,CE]2 [F,D]2 z2 | %10
[M:1/4][K:treble] AA |[M:4/4] [Fd]4 [Fd]2 [FA]2 |[M:3/4] [GB]2 [FA]4 |[M:1/4] [DF]2 | %14
[M:4/4] [CE]4 [DF]2 [EG]2 |[M:3/4] [EG]2 F4 |[M:1/4] AA |[M:4/4] [Fd]4 [Fd]2 [FA]2 | %18
[M:3/4] [GB]2 [FA]4 |[M:1/4][K:bass] [F,D]2 |[M:4/4] [A,DF]4 [G,CE]2 [G,CE]2 |[M:3/4] [F,D]6 |] %22
V:2
 z4 z2 D2 | x8 | x8 | x8 |[M:3/4] x6 |[M:1/4] F,F |[M:4/4] x8 | x8 | x6[K:bass] x2 |[M:3/4] x6 | %10
[M:1/4][K:treble] x2 |[M:4/4] x8 |[M:3/4] x6 |[M:1/4] x2 |[M:4/4] x8 |[M:3/4] x6 |[M:1/4] x2 | %17
[M:4/4] x8 |[M:3/4] x6 |[M:1/4][K:bass] x2 |[M:4/4] x8 |[M:3/4] x6 |] %22
V:3
 z4 z2 F,A, | [D,D]2 [D,D]2 [D,D]2 [D,D]2 | [D,A,]2 [D,D]2 [D,D]2 D,D, | D,4 D,2 D,2 | %4
[M:3/4] A,,2 A,,2 z2 |[M:1/4] z A, |[M:4/4] [D,D]2 [D,D]2 [D,D]2 [D,D]2 | %7
 [D,A,]2 [D,D]2 [D,D]2 D,D, | A,,4 A,,2 A,,2 |[M:3/4] A,,2 D,2 z2 |[M:1/4] A,A, | %11
[M:4/4] [D,A,]4 [D,A,]2 [D,D]2 |[M:3/4] [D,D]2 [D,D]4 |[M:1/4] [D,A,]2 | %14
[M:4/4] [A,,A,]4 [A,,A,]2 [A,,A,]2 |[M:3/4] [D,A,]2 [D,A,D]4 |[M:1/4] A,A, | %17
[M:4/4] [D,A,]4 [D,A,]2 [D,D]2 |[M:3/4] [D,D]2 [D,D]4 |[M:1/4] D,2 |[M:4/4] A,,4 A,,2 A,,2 | %21
[M:3/4] D,6 |] %22
V:4
 z4 z2 D,2 | x8 | x8 | x8 |[M:3/4] x6 |[M:1/4] D,2 |[M:4/4] x8 | x8 | x8 |[M:3/4] x6 |[M:1/4] x2 | %11
[M:4/4] x8 |[M:3/4] x6 |[M:1/4] x2 |[M:4/4] x8 |[M:3/4] x6 |[M:1/4] x2 |[M:4/4] x8 |[M:3/4] x6 | %19
[M:1/4] x2 |[M:4/4] x8 |[M:3/4] x6 |] %22

